X:1
T:Title
%%score 1 { 2 | 3 }
L:1/8
Q:1/4=102
M:6/8
K:Ab
V:1 treble nm="Grand Piano, Soprano"
V:2 treble nm="Choir Pad, Salinas, Ada Rose Ribbs"
V:3 bass 
V:1
 [Ac] [Ad]2 [Ac] [AB]2 | [Ad] [Ac]2 [GB] A2 | [Ac] [FB]2 F [EA]2 | [EG] [EA]2- [EA]2- [EA]/ z/ | %4
w: By~Ada~Rose~Gibbs~(1864\-1905) * * *||||
 [EA] [E=A]2 [EF] [Dd]2 | [Ec] [DB]2 [E=A] [EB]2 | [FB] [F_c]2 [FG] [F=A]2 | %7
w: |||
 [F_c] [E=c]2- [Ec]2- [Ec]/ z/ | [Ec] [GB]2 [EG] [EA]2 | [Ac] [Fd]2 [Gd] [Ac]2 | %10
w: |||
 [Ac] [Gc]2 [Gc] [FB]2 | [GB] A2- A3- | A3 z3 |] %13
w: |||
V:2
 E F2 E D2 | F E2 D C2 | E D2 D C2 | B, C2- C2- C/ z/ | C C2 C[K:bass] B,2 | =A, B,2 C D2 | %6
 D =D2 _C =C2 | =D C2- C2- C/ z/ | C E2 B, C2 | E D2 D E2 | E =E2 E F2 | D C2- C3- | C3 z3 |] %13
V:3
 A, A,2 A, A,2 | A, A,2 A, A,2 | A, D,2 D, E,2 | E, A,2- A,2- A,/ z/ | A, F,2 F, F,2 | %5
 .F,3 B, B,2 | B, G,2 G, G,2 | G, C,2- C,2- C,/ z/ | C, D,2 D, C,2 | C, B,,2 B,, A,,2 | %10
 A,, C,2 C, D,2 | =E, A,2- A,3- | A,3 z3 |] %13

